X: 29949
T: O, Teannaibh Dlùth Togaibh Fonn
R: waltz
M: 3/4
K: Gmajor
G,2 B,2 C2|D6|C2 B,2 A,2|G,6|G,2 B,2 D2|G6|(A2 G2) F2|D2 D4|
z2 (EF) G2|E2 C4|(DE) G2 D2|D6|G,2 B,2 C2|D6|C2 B,2 A,2|G,6:|
G2 B2 c2|d6|c2 B2 A2|G6|G2 B2 d2|g6|(a2 g2) f2|d2 d4|
z2 (ef) g2|e2 c4|(de) g2 d2|d6|G2 B2 c2|d6|c2 B2 A2|G6:|

